X:1
T:Title
%%score ( 1 2 ) { 3 | 4 }
L:1/8
Q:1/4=112
M:4/4
K:F
V:1 treble nm="Grand Piano, Soprano"
V:2 treble 
V:3 bass nm="Choir Pad, We Walk by Faith (Wolfe)"
V:4 bass 
V:1
 C2 [FA]2 [FA]2 [FG]2 | F2 [FA]2 [FA]2 [EG]2 | F2 [EG]2 [EG]2 F2 | [EG]2 [FA]4 [Fc]2 | %4
w: By~Peter~Philip~Bilhorn * * *||||
 C2 [FA]2 [FA]2 [FG]2 | F2 [FA]2 [FA]2 [EG]2 | [DF]2 [DG]2 [GB]2 [FA]2 | F2 [EG]4 F2 | z2 c6 | %9
w: |||||
 [^Fd]2 B2- [DB-]2 [GB]2 | [^FA]2 B2- [GB-]2 [GB]2 | [Gc]2 A2- [CA-]2 [FA]2 | %12
w: |||
 [FA]2 c2- [Fc-]2 [Fc]2 | [G^c]2 d2- [Fd-]2 [Fd]2 | [Ff]2 [Fc]2 [FA]2 [EB]2 | [EG]2 [CF]6- | %16
w: ||||
 [CF]2 z2 z4 |] %17
w: |
V:2
 x8 | x8 | x8 | x8 | x8 | x8 | x8 | x8 | [FA]2 F2 F2 F2 | z2 G2 z4 | z2 G2 z4 | z2 F2 z4 | %12
 z2 F2 z4 | z2 F2 z4 | x8 | x8 | x8 |] %17
V:3
 A,2 C2 C2 B,2 | A,2 C2 C2 B,2 | A,2 B,2 B,2 A,2 | C2 C4 A,2 | A,2 C2 C2[K:bass] B,2 | %5
 A,2 C2 C2 B,2 | A,2 B,2 D2 C2 | A,2 B,4 A,2 | C2 A,2 A,2 A,2 | A,2 B,2 B,2[K:treble] D2 | %10
 D2 D2 D2 D2 | C2 C2 A,2 C2 | C2[K:bass] A,2 A,2 A,2 | A,2 A,2 A,2 G,2 | _A,2 =A,2 C2 G,2 | %15
 B,2 A,6- | A,2 z2 z4 |] %17
V:4
 F,2 F,2 F,2 F,2 | F,2 F,2 F,2 C,2 | C,2 C,2 C,2 D,2 | C,2 F,4 F,2 | F,2 F,2 F,2 F,2 | %5
 F,2 F,2 F,2 C,2 | D,2 B,,2 G,,2 C,2 | C,2 C,4 F,2 | F,2 F,2 C,2 F,2 | D,2 G,2 G,2 G,2 | %10
 D,2 G,2 D,2 G,2 | E,2 F,2 F,2 F,2 | F,2 F,2 C,2 F,2 | E,2 D,2 C,2 B,,2 | =B,,2 C,2 C,2 C,2 | %15
 C,2 F,6- | F,2 z2 z4 |] %17

